X:1
T:Pyotr Tchaikovski 
T:Лебединое озеро
T:(Lago dos Cisnes)
C:Traditional
%%score { 1 | 2 }
L:1/8
Q:1/4=71
M:4/4
K:D
V:1 treble nm="Piano" snm="Pno"
V:2 bass 
V:1
"^Adagio" f4 !1!Bcde | f3 d f3 d | f3 !2!B !4!dBGd | B4 z !4!edc | f4 Bcde | f3 d f3 d | %6
 f3 B dBGd | B6 B2 | c2 d2 !1!e2 fg | a3 g f2 !1!ga | b3 a g2 !3!ab | c'3 b !2!f!1!d!2!c!1!B | %12
 c2 d2 !1!e2 fg | a3 g f2 !1!ga | b3 a g2 ab | !4!=c'3 !1!g !2!e2 !1!g!4!c' | ^c'3 ^g c'3 f | %17
 !1!f4 Bcde | f3 d f3 d | f3 B dBGd | B4 z edc | f4 Bcde | f3 d f3 d | f3 B dBGd | !fermata!B8 |] %25
V:2
 B,,4 E,4 | B,,4 B,,4 | B,,4 ^G,,2 =G,,2 | B,,4 E,4 | B,,4 E,4 | B,,4 B,,4 | B,,4 ^G,,2 =G,,2 | %7
 B,,4 B,,4 | A,4 G,4 | F,4 F,4 | E,4 D,4 | C,4 F,2 B,,2 | A,4 G,4 | F,4 F,4 | E,4 D,4 | %15
 =C,4 _B,,4 | [=F,B,]4 [E,^A,]4 | B,,4 E,4 | B,,4 B,,4 | B,,4 ^G,,2 =G,,2 | B,,4 E,4 | B,,4 E,4 | %22
 B,,4 B,,4 | B,,4 ^G,,2 =G,,2 | !fermata!B,,8 |] %25

